docs/img/group18.svg

<svg width="22" height="24" viewBox="0 0 22 24" fill="none" xmlns="http://www.w3.org/2000/svg">
<path d="M9.96662 23.518C10.3866 23.5077 10.7896 23.3404 11.1044 23.0455C11.4191 22.7506 11.6254 22.3473 11.6866 21.9067H8.17993C8.24291 22.3592 8.45882 22.7721 8.78747 23.0685C9.11613 23.3648 9.53517 23.5246 9.96662 23.518Z" fill="white"/>
<path d="M9.96662 23.518C10.3866 23.5077 10.7896 23.3404 11.1044 23.0455C11.4191 22.7506 11.6254 22.3473 11.6866 21.9067H8.17993C8.24291 22.3592 8.45882 22.7721 8.78747 23.0685C9.11613 23.3648 9.53517 23.5246 9.96662 23.518Z" stroke="white"/>
<path d="M19.7718 18.4149C19.1246 17.8254 18.558 17.1496 18.0872 16.4057C17.5733 15.3788 17.2653 14.2573 17.1812 13.1072V9.71956C17.1785 9.30807 17.1426 8.89752 17.0738 8.49206C16.5456 8.38417 16.0379 8.18964 15.5705 7.91603C15.7486 8.50224 15.8392 9.11259 15.8389 9.72642V13.114C15.9212 14.5171 16.2989 15.8855 16.9463 17.1257C17.4097 17.8759 17.9595 18.5666 18.5839 19.183H1.39597C2.02041 18.5666 2.5702 17.8759 3.03356 17.1257C3.68095 15.8855 4.05868 14.5171 4.14094 13.114V9.71956C4.13741 8.92593 4.28712 8.13938 4.5815 7.40495C4.87589 6.67052 5.30917 6.00264 5.85652 5.43954C6.40388 4.87645 7.05456 4.4292 7.77132 4.12341C8.48808 3.81762 9.25683 3.65929 10.0336 3.6575C11.1703 3.65843 12.2816 4.00192 13.2282 4.64498C13.1238 4.25341 13.0653 3.85058 13.0537 3.44492V3.01289C12.3529 2.66066 11.6001 2.42896 10.8255 2.32714V1.46309C10.8255 1.22029 10.7311 0.987432 10.5631 0.815746C10.3951 0.64406 10.1672 0.547607 9.92953 0.547607C9.6919 0.547607 9.46401 0.64406 9.29598 0.815746C9.12795 0.987432 9.03356 1.22029 9.03356 1.46309V2.36143C7.29914 2.61142 5.71179 3.49411 4.56458 4.84655C3.41736 6.19899 2.78774 7.92984 2.79195 9.71956V13.1072C2.70789 14.2573 2.39985 15.3788 1.88591 16.4057C1.42341 17.1479 0.865903 17.8236 0.228188 18.4149C0.156598 18.4792 0.0992224 18.5583 0.0598775 18.647C0.0205325 18.7356 0.000120669 18.8319 0 18.9292V19.8619C0 20.0437 0.0707093 20.2182 0.196573 20.3468C0.322436 20.4754 0.493143 20.5476 0.671141 20.5476H19.3289C19.5069 20.5476 19.6776 20.4754 19.8034 20.3468C19.9293 20.2182 20 20.0437 20 19.8619V18.9292C19.9999 18.8319 19.9795 18.7356 19.9401 18.647C19.9008 18.5583 19.8434 18.4792 19.7718 18.4149Z" fill="white"/>
<path d="M17.9666 7.06667C19.8076 7.06667 21.2999 5.48474 21.2999 3.53333C21.2999 1.58193 19.8076 0 17.9666 0C16.1257 0 14.6333 1.58193 14.6333 3.53333C14.6333 5.48474 16.1257 7.06667 17.9666 7.06667Z" fill="url(#paint0_linear)"/>
<path d="M17.9666 7.06667C19.8076 7.06667 21.2999 5.48474 21.2999 3.53333C21.2999 1.58193 19.8076 0 17.9666 0C16.1257 0 14.6333 1.58193 14.6333 3.53333C14.6333 5.48474 16.1257 7.06667 17.9666 7.06667Z" stroke="none"/>
<defs>
<linearGradient id="paint0_linear" x1="17.9666" y1="0" x2="17.9666" y2="7.06667" gradientUnits="userSpaceOnUse">
<stop stop-color="#326CFF"/>
<stop offset="1" stop-color="#26FFF2"/>
</linearGradient>
</defs>
</svg>

<svg width="22" height="24" fill="none" xmlns="http://www.w3.org/2000/svg"><path d="M9.967 23.518a1.72 1.72 0 001.137-.473c.315-.294.521-.698.583-1.138H8.18c.063.452.279.865.607 1.162a1.72 1.72 0 001.18.449z" fill="#fff"/><path d="M9.967 23.518a1.72 1.72 0 001.137-.473c.315-.294.521-.698.583-1.138H8.18c.063.452.279.865.607 1.162a1.72 1.72 0 001.18.449z" stroke="#fff"/><path d="M19.772 18.415a9.821 9.821 0 01-1.685-2.01 8.808 8.808 0 01-.906-3.298V9.72a7.637 7.637 0 00-.107-1.228 4.928 4.928 0 01-1.504-.576c.179.586.27 1.197.269 1.81v3.388a9.928 9.928 0 001.107 4.012c.464.75 1.013 1.44 1.638 2.057H1.396a11.048 11.048 0 001.638-2.057 9.927 9.927 0 001.107-4.012V9.72a6.15 6.15 0 01.44-2.315A6.047 6.047 0 015.857 5.44 5.9 5.9 0 017.77 4.123a5.797 5.797 0 012.263-.466 5.691 5.691 0 013.194.988 5.24 5.24 0 01-.174-1.2v-.432a6.99 6.99 0 00-2.229-.686v-.864a.926.926 0 00-.262-.647.886.886 0 00-1.267 0 .926.926 0 00-.262.647v.898a7.213 7.213 0 00-4.47 2.486 7.509 7.509 0 00-1.77 4.873v3.387a8.806 8.806 0 01-.906 3.299 9.826 9.826 0 01-1.658 2.009.685.685 0 00-.228.514v.933c0 .182.07.356.197.485.125.128.296.2.474.2H19.33a.664.664 0 00.474-.2.693.693 0 00.197-.485v-.933a.697.697 0 00-.228-.514z" fill="#fff"/><path d="M17.967 7.067c1.84 0 3.333-1.582 3.333-3.534C21.3 1.582 19.808 0 17.967 0c-1.841 0-3.334 1.582-3.334 3.533 0 1.952 1.493 3.534 3.334 3.534z" fill="url(#paint0_linear)"/><path d="M17.967 7.067c1.84 0 3.333-1.582 3.333-3.534C21.3 1.582 19.808 0 17.967 0c-1.841 0-3.334 1.582-3.334 3.533 0 1.952 1.493 3.534 3.334 3.534z" stroke="#fff"/><defs><linearGradient id="paint0_linear" x1="17.967" y1="0" x2="17.967" y2="7.067" gradientUnits="userSpaceOnUse"><stop stop-color="#326CFF"/><stop offset="1" stop-color="#26FFF2"/></linearGradient></defs></svg>
